www/assets/icons/escalator_warning.svg

<svg xmlns="http://www.w3.org/2000/svg" width="24" height="24" viewBox="0 0 24 24" fill='currentColor'><path d="M7 2c1.1 0 2 .9 2 2s-.9 2-2 2-2-.9-2-2 .9-2 2-2m9 7.5c0 .83.67 1.5 1.5 1.5s1.5-.67 1.5-1.5S18.33 8 17.5 8 16 8.67 16 9.5m3 2.5h-2.84c-.58.01-1.14.32-1.45.86l-.92 1.32L10.22 8a2.02 2.02 0 0 0-1.71-1H5.5c-1.1 0-2 .9-2 2v6H5v7h5V11.61L12.53 16h2.2l.77-1.1V22h4v-5h1v-3.5c0-.82-.67-1.5-1.5-1.5"/></svg>

<svg width="24" height="24" viewBox="0 0 24 24" xmlns="http://www.w3.org/2000/svg" fill='currentColor'><path d="M7 2C8.1 2 9 2.9 9 4C9 5.1 8.1 6 7 6C5.9 6 5 5.1 5 4C5 2.9 5.9 2 7 2ZM16 9.5C16 10.33 16.67 11 17.5 11C18.33 11 19 10.33 19 9.5C19 8.67 18.33 8 17.5 8C16.67 8 16 8.67 16 9.5ZM19 12H16.16C15.58 12.01 15.02 12.32 14.71 12.86L13.79 14.18L10.22 8C9.85 7.37 9.19 7.01 8.51 7H5.5C4.4 7 3.5 7.9 3.5 9V15H5V22H10V11.61L12.53 16H14.73L15.5 14.9V22H19.5V17H20.5V13.5C20.5 12.68 19.83 12 19 12Z"/></svg>
